svgs/thin/star-of-life.svg

<svg xmlns="http://www.w3.org/2000/svg" viewBox="0 0 512 512"><!--! Font Awesome Pro 6.0.0-alpha3 by @fontawesome - https://fontawesome.com License - https://fontawesome.com/license (Commercial License) --><path d="M483.1 377.1c3.844 2.188 5.172 7.062 2.984 10.91C485.5 390.6 482.8 392 480 392c-1.359 0-2.719-.3438-3.969-1.062L264 269.8V504c0 4.406-3.578 8-8 8s-8-3.594-8-8V269.8l-212 121.2C34.72 391.7 33.36 392 32 392c-2.766 0-5.469-1.438-6.953-4.031c-2.188-3.844-.8594-8.719 2.984-10.91L239.9 256L28.03 134.9C24.19 132.8 22.86 127.9 25.05 124c2.203-3.906 7.094-5.188 10.92-2.969L248 242.2V8C248 3.594 251.6 0 256 0s8 3.594 8 8v234.2l212-121.2c3.75-2.219 8.703-.9375 10.92 2.969c2.188 3.844 .8594 8.719-2.984 10.91L272.1 256L483.1 377.1z"/></svg>

<svg xmlns="http://www.w3.org/2000/svg" viewBox="0 0 512 512"><!-- Font Awesome Pro 6.0.0-alpha2 by @fontawesome - https://fontawesome.com License - https://fontawesome.com/license (Commercial License) --><path d="M483.975 377.062C487.819 379.25 489.147 384.125 486.959 387.969C485.475 390.562 482.772 392 480.006 392C478.647 392 477.288 391.656 476.038 390.938L264.006 269.777V504C264.006 508.406 260.428 512 256.006 512S248.006 508.406 248.006 504V269.777L35.975 390.938C34.725 391.656 33.366 392 32.006 392C29.241 392 26.538 390.562 25.053 387.969C22.866 384.125 24.194 379.25 28.038 377.062L239.897 256L28.038 134.938C24.194 132.75 22.866 127.875 25.053 124.031C27.256 120.125 32.147 118.844 35.975 121.063L248.006 242.223V8C248.006 3.594 251.584 0 256.006 0S264.006 3.594 264.006 8V242.223L476.038 121.062C479.788 118.844 484.741 120.125 486.959 124.031C489.147 127.875 487.819 132.75 483.975 134.937L272.116 256L483.975 377.062Z"/></svg>
